X: 4382
T: GERMAN NATIONAL AIR
R: March
%R: march
B: James Kerr "Merry Melodies" v.4 p.41 #382
Z: 2016 John Chambers <jc:trillian.mit.edu>
M: C
L: 1/8
K: D
AAA |\
d3D DDFA | dcc2 zAAA | e3d cBAG | FAd2 zddd |\
B3B AABc | d4 zddd | B2G2 EEAA | D4 z ||
Acd |\
e3d cBAG | FAd2 zdcd | e3e gfed | ceA2 zdcd |\
B3B AABc | d4 zdcd | B3G EEAA | D4 z |]

%%sep 1 1 500
%%sep 1 1 500

